X:91
M:4/4
L:1/8
K:G
| GABG d2BG | dcBA Bded | edge d2cA | ABc/B/A edBA | 
| eBB/c/B eBgB | eBgB d2BG | ABc/B/A eABA | egfd edBA | 
eBB/c/B eBgB | eBgB d2BG | ABc/B/A eABA | gedB BAA2 :|| 

